dataset/projectM/icon.svg

<?xml version="1.0" encoding="UTF-8" standalone="no"?>
<!-- Generator: Adobe Illustrator 23.0.1, SVG Export Plug-In . SVG Version: 6.00 Build 0)  -->

<svg
   version="1.1"
   id="Livello_1"
   x="0px"
   y="0px"
   viewBox="0 0 128 128"
   enable-background="new 0 0 240.1 240.1"
   xml:space="preserve"
   width="128"
   height="128"
   xmlns:xlink="http://www.w3.org/1999/xlink"
   xmlns="http://www.w3.org/2000/svg"
   xmlns:svg="http://www.w3.org/2000/svg"><defs
   id="defs13"><linearGradient
     xlink:href="#linearGradient1"
     id="linearGradient3"
     x1="14.539751"
     y1="67.041328"
     x2="113.45777"
     y2="67.041328"
     gradientUnits="userSpaceOnUse"
     gradientTransform="matrix(1.014464,0,0,1.014464,-0.91975205,-2.0107013)" /><linearGradient
     id="linearGradient1"><stop
       style="stop-color:#003666;stop-opacity:1;"
       offset="0"
       id="stop1" /><stop
       style="stop-color:#006dcc;stop-opacity:1;"
       offset="0.0076594"
       id="stop5" /><stop
       style="stop-color:#003666;stop-opacity:1;"
       offset="0.03681411"
       id="stop7" /><stop
       style="stop-color:#003666;stop-opacity:1;"
       offset="0.17173064"
       id="stop9" /><stop
       style="stop-color:#0088ff;stop-opacity:1;"
       offset="0.18620084"
       id="stop11" /><stop
       style="stop-color:#003666;stop-opacity:1;"
       offset="0.27133784"
       id="stop13" /><stop
       style="stop-color:#003666;stop-opacity:1;"
       offset="0.44499758"
       id="stop14" /><stop
       style="stop-color:#006dcc;stop-opacity:1;"
       offset="0.4547216"
       id="stop18" /><stop
       style="stop-color:#003666;stop-opacity:1;"
       offset="0.48462871"
       id="stop19" /><stop
       style="stop-color:#003666;stop-opacity:1;"
       offset="0.53203523"
       id="stop21" /><stop
       style="stop-color:#0088ff;stop-opacity:1;"
       offset="0.54494917"
       id="stop23" /><stop
       style="stop-color:#003666;stop-opacity:1;"
       offset="0.62080669"
       id="stop24" /><stop
       style="stop-color:#003666;stop-opacity:1;"
       offset="0.80668736"
       id="stop26" /><stop
       style="stop-color:#006ccc;stop-opacity:1;"
       offset="0.82080287"
       id="stop28" /><stop
       style="stop-color:#003666;stop-opacity:1;"
       offset="0.85132217"
       id="stop29" /><stop
       style="stop-color:#003666;stop-opacity:1;"
       offset="0.96470386"
       id="stop30-3" /><stop
       style="stop-color:#0087ff;stop-opacity:1;"
       offset="0.99063683"
       id="stop31" /><stop
       style="stop-color:#003666;stop-opacity:1;"
       offset="1"
       id="stop3" /></linearGradient></defs>

<path
   id="path16"
   style="color:#000000;font-style:normal;font-variant:normal;font-weight:normal;font-stretch:normal;font-size:medium;line-height:normal;font-family:sans-serif;font-variant-ligatures:normal;font-variant-position:normal;font-variant-caps:normal;font-variant-numeric:normal;font-variant-alternates:normal;font-variant-east-asian:normal;font-feature-settings:normal;font-variation-settings:normal;text-indent:0;text-align:start;text-decoration-line:none;text-decoration-style:solid;text-decoration-color:#000000;letter-spacing:normal;word-spacing:normal;text-transform:none;writing-mode:lr-tb;direction:ltr;text-orientation:mixed;dominant-baseline:auto;baseline-shift:baseline;text-anchor:start;white-space:normal;shape-padding:0;shape-margin:0;inline-size:0;clip-rule:nonzero;display:inline;overflow:visible;visibility:visible;isolation:auto;mix-blend-mode:normal;color-interpolation:sRGB;color-interpolation-filters:linearRGB;solid-color:#000000;solid-opacity:1;vector-effect:none;fill:url(#linearGradient3);fill-opacity:1;fill-rule:nonzero;stroke:none;stroke-width:1.01446;stroke-linecap:butt;stroke-linejoin:miter;stroke-miterlimit:3.3;stroke-dasharray:none;stroke-dashoffset:0;stroke-opacity:1;-inkscape-stroke:none;color-rendering:auto;image-rendering:auto;shape-rendering:auto;text-rendering:auto;enable-background:accumulate;stop-color:#000000"
   d="M 47.578364,15.999997 13.857422,112 l -0.01196,4 h 18.448582 l 15.347731,-53.419858 11.8189,34.424407 h 9.092529 L 80.370128,62.580142 95.717862,116 114.15454,115.9802 114.15054,112 80.435506,15.999997 64.005947,64.759653 Z" /><g
   id="path1260-7"
   transform="matrix(1.0136205,0,0,1.0136205,-0.86779132,0.16914587)"><path
     style="fill:#005db1;stroke-miterlimit:3.3"
     d="m 47.77833,14.55354 -31.9707,94.85351 H 32.04786 L 47.792,54.610178 60.17677,90.682444 H 67.8252 L 80.20802,54.610178 95.95216,109.40705 h 16.24023 L 80.22364,14.55354 64.00099,62.700022 Z"
     id="path14" /><path
     style="fill:#005db1;stroke-miterlimit:3.3"
     d="M 47.779297,11.671875 14.527344,110.32813 h 18.21289 l 15.128907,-52.658208 11.65039,33.933594 h 8.962891 L 80.130859,57.669922 95.259766,110.32813 H 113.47266 L 80.222656,11.671875 64,59.818359 Z m -0.002,5.763672 16.224609,48.146484 16.222656,-48.146484 30.685548,91.050783 H 96.644531 L 81.091797,54.355469 79.337891,54.310547 67.167969,89.761719 H 60.833984 L 48.662109,54.310547 46.908203,54.355469 31.355469,108.48633 H 17.089844 Z"
     id="path15" /></g></svg>

<svg xmlns="http://www.w3.org/2000/svg" xmlns:xlink="http://www.w3.org/1999/xlink" xml:space="preserve" width="128" height="128" viewBox="0 0 128 128"><defs><linearGradient xlink:href="#a" id="b" x1="14.54" x2="113.458" y1="67.041" y2="67.041" gradientTransform="translate(-.92 -2.01)scale(1.01446)" gradientUnits="userSpaceOnUse"/><linearGradient id="a"><stop offset="0" style="stop-color:#003666;stop-opacity:1"/><stop offset=".008" style="stop-color:#006dcc;stop-opacity:1"/><stop offset=".037" style="stop-color:#003666;stop-opacity:1"/><stop offset=".172" style="stop-color:#003666;stop-opacity:1"/><stop offset=".186" style="stop-color:#08f;stop-opacity:1"/><stop offset=".271" style="stop-color:#003666;stop-opacity:1"/><stop offset=".445" style="stop-color:#003666;stop-opacity:1"/><stop offset=".455" style="stop-color:#006dcc;stop-opacity:1"/><stop offset=".485" style="stop-color:#003666;stop-opacity:1"/><stop offset=".532" style="stop-color:#003666;stop-opacity:1"/><stop offset=".545" style="stop-color:#08f;stop-opacity:1"/><stop offset=".621" style="stop-color:#003666;stop-opacity:1"/><stop offset=".807" style="stop-color:#003666;stop-opacity:1"/><stop offset=".821" style="stop-color:#006ccc;stop-opacity:1"/><stop offset=".851" style="stop-color:#003666;stop-opacity:1"/><stop offset=".965" style="stop-color:#003666;stop-opacity:1"/><stop offset=".991" style="stop-color:#0087ff;stop-opacity:1"/><stop offset="1" style="stop-color:#003666;stop-opacity:1"/></linearGradient></defs><path d="m47.578 16-33.72 96-.013 4h18.449l15.348-53.42L59.46 97.005h9.092L80.37 62.58 95.718 116l18.437-.02-.004-3.98-33.715-96-16.43 48.76Z" style="color:#000;font-style:normal;font-variant:normal;font-weight:400;font-stretch:normal;font-size:medium;line-height:normal;font-family:sans-serif;font-variant-ligatures:normal;font-variant-position:normal;font-variant-caps:normal;font-variant-numeric:normal;font-variant-alternates:normal;font-variant-east-asian:normal;font-feature-settings:normal;font-variation-settings:normal;text-indent:0;text-align:start;text-decoration-line:none;text-decoration-style:solid;text-decoration-color:#000;letter-spacing:normal;word-spacing:normal;text-transform:none;writing-mode:lr-tb;direction:ltr;text-orientation:mixed;dominant-baseline:auto;baseline-shift:baseline;text-anchor:start;white-space:normal;shape-padding:0;shape-margin:0;inline-size:0;clip-rule:nonzero;display:inline;overflow:visible;visibility:visible;isolation:auto;mix-blend-mode:normal;color-interpolation:sRGB;color-interpolation-filters:linearRGB;solid-color:#000;solid-opacity:1;vector-effect:none;fill:url(#b);fill-opacity:1;fill-rule:nonzero;stroke:none;stroke-width:1.01446;stroke-linecap:butt;stroke-linejoin:miter;stroke-miterlimit:3.3;stroke-dasharray:none;stroke-dashoffset:0;stroke-opacity:1;-inkscape-stroke:none;color-rendering:auto;image-rendering:auto;shape-rendering:auto;text-rendering:auto;stop-color:#000"/><path d="m47.778 14.554-31.97 94.853h16.24L47.792 54.61l12.385 36.072h7.648L80.208 54.61l15.744 54.797h16.24L80.224 14.554 64 62.7Z" style="fill:#005db1;stroke-miterlimit:3.3" transform="translate(-.868 .17)scale(1.01362)"/><path d="m47.78 11.672-33.253 98.656H32.74L47.87 57.67l11.65 33.934h8.962L80.131 57.67l15.129 52.658h18.213l-33.25-98.656L64 59.818Zm-.003 5.764 16.225 48.146 16.223-48.146 30.685 91.05H96.645l-15.553-54.13-1.754-.045-12.17 35.45h-6.334l-12.172-35.45-1.754.044-15.553 54.131H17.09Z" style="fill:#005db1;stroke-miterlimit:3.3" transform="translate(-.868 .17)scale(1.01362)"/></svg>
